!!!SOCIAL_FUNCTION:	songs received from animals
!!!PDT:	1918

Specific Region: Dakotas, Minnesota, Montana, Nebraska
!!!REG: Dakotas and Montana
!!!LING_GROUP: Siouan
!!!LANG: Tone
!!!OTL@ENG: A Buffalo Said to Me
!!!ONM: No. 44
**kern
*Imale
*clefF4
*k[b-e-a-d-g-]
*M3/4
*MM69
16f
=1
8.f
16f
8.f
16e-
8.e-
16f
=2||
*M2/4
8.e-
16e-
16d-
8.d-
=3||
*M3/4
2d-
8.B-
16d-
=4
8.d-
16e-
8.e-
16d-
8.d-
16B--
=5||
*M2/4
8.B--
16A-
16A-
8.A-
=6||
*M3/4
2A-
8.F
16A-
=7
8.A-
16B--
8.B--
16A-
8.A-
16B--
=8||
*M2/4
8.A-
16F
16F
8.F
=9
2F
=10
2F
=11
16d-
8.d-
16d-
8.d-
=12
16f
8d-
16B-
4A-
=13||
*M3/4
2A-
8.F
16A-
=14
8.A-
16B--
8.B--
16A-
8.A-
16B--
=15||
*M2/4
8.A-
16F
16F
8.F
=16
2F
=17
4F
4r
==
*-
!!!CNT: Native American -- Sioux
!!!MRD: 1911/07//-1914///
!!!OCL: Frances Densmore
!!!YOR1: Teton Sioux Music, Bulletin 61,
!!!YOR2: Bureau of American Ethnology, Smithsonian Institution
!!!PPR: Government Printing Office
!!!PPP: Washington, D.C.
!!!PDT: 1918///
!!!ENC: Craig Stuart Sapp
!!!END: 2002/03/25/
!!!EEV: 2002/03/31/
!!!AGN: Song of Personal Dreams/Song Received from Animals
!!!MPN@@SIO: Tatang'ka-ohi'tika
!!!MPN@ENG: Brave Buffalo
!!!TXO: Teton Sioux
!!!MLC: Standing Rock Reservation, South Dakota, United States of America
!!!ARL: 45.9/-100.7#
!!!catalog: Catalogue No. 606
!!!PPG: 174
!!!EFL: 44/245
!!!VTS: 1023786584
